X:6344
T:Sunta Luva
O:england
R:polska O
H:From Nås, Dalarna, Sweden
N:A typical uneven polska.
M:3/4
L:1/8
K:Ador
A>B cB AG|Ac e2 ef|gf ed cd|ef e3A:|
|:A>c e2 e>d|f>e e2 c2|cB AG A>c|e>f d2 c>B|G>B A3A:|


